src/resources/images/licenses/cc-by.svg

<?xml version="1.0" encoding="UTF-8"?>
<svg version="1.0" viewBox="0 0 120 42" xmlns="http://www.w3.org/2000/svg" xmlnsCc="http://web.resource.org/cc/" xmlnsDc="http://purl.org/dc/elements/1.1/" xmlnsRdf="http://www.w3.org/1999/02/22-rdf-syntax-ns#">
<metadata>
<rdfRDF>
<ccWork rdfAbout="">
<dcFormat>image/svg+xml</dcFormat>
<dcType rdfResource="http://purl.org/dc/dcmitype/StillImage"/>
</ccWork>
</rdfRDF>
</metadata>
<g transform="matrix(.99377 0 0 .99367 -177.69 6.2513e-7)">
<path d="m181.97 0.51074 114.06 0.20264c1.5938 0 3.0176-0.23633 3.0176 3.1807l-0.13965 37.567h-119.82v-37.707c0-1.685 0.16309-3.2436 2.8784-3.2436z" fill="#aab2ab" nodetypes="ccccccc"/>
<path d="m297.3 0h-116.23c-1.2466 0-2.2612 1.0142-2.2612 2.2607v39.497c0 0.28174 0.229 0.51025 0.51074 0.51025h119.73c0.28174 0 0.51074-0.22852 0.51074-0.51025v-39.497c-1e-5 -1.2466-1.0146-2.2607-2.2617-2.2607zm-116.23 1.0215h116.23c0.68408 0 1.2402 0.55566 1.2402 1.2393v27.45h-83.344c-3.0449 5.5059-8.9111 9.2441-15.644 9.2441-6.7354 0-12.6-3.7349-15.644-9.2441h-4.0776v-27.45c1e-5 -0.68359 0.55616-1.2393 1.2398-1.2393z"/>
<g enable-background="new    " fill="#fff">
<path d="m253.08 32.956c0.31738 0 0.60742 0.02832 0.87012 0.08398 0.26172 0.05566 0.48535 0.14746 0.67285 0.27539 0.18652 0.12695 0.33203 0.29688 0.43457 0.50781 0.10254 0.21191 0.1543 0.47266 0.1543 0.78418 0 0.33594-0.07617 0.61523-0.22949 0.83887-0.15234 0.22461-0.37891 0.40723-0.67773 0.55078 0.41211 0.11816 0.71973 0.3252 0.92285 0.62109s0.30469 0.65234 0.30469 1.0693c0 0.33594-0.06543 0.62695-0.19629 0.87305-0.13086 0.24512-0.30762 0.44629-0.52832 0.60156-0.22168 0.15625-0.47461 0.27148-0.75781 0.3457-0.28418 0.0752-0.5752 0.1123-0.875 0.1123h-3.2364v-6.6641h3.1416v1e-5zm-0.1875 2.6953c0.26172 0 0.47656-0.0625 0.64551-0.18652 0.16797-0.12402 0.25195-0.3252 0.25195-0.60449 0-0.15527-0.02832-0.2832-0.08398-0.38184-0.05664-0.09961-0.13086-0.17676-0.22461-0.2334-0.09375-0.05566-0.20117-0.09473-0.32227-0.11621s-0.24805-0.03223-0.37793-0.03223h-1.374v1.5547h1.4854zm0.08593 2.8281c0.14355 0 0.28027-0.01367 0.41113-0.04199s0.24609-0.0752 0.34668-0.13965c0.09961-0.06543 0.17871-0.1543 0.23828-0.2666 0.05957-0.11133 0.08887-0.25488 0.08887-0.42871 0-0.3418-0.09668-0.58594-0.29004-0.73242-0.19336-0.14551-0.44922-0.21875-0.7666-0.21875h-1.5996v1.8281h1.5713z"/>
<path d="m255.79 32.956h1.6436l1.5606 2.6318 1.5508-2.6318h1.6338l-2.4736 4.1064v2.5576h-1.4688v-2.5947l-2.4463-4.0693z"/>
</g>
<g transform="matrix(.87292 0 0 .87292 50.125 143.21)">
<path cx="296.35416" cy="264.3577" rx="22.939548" ry="22.939548" d="m186.9-141.46c0.00558 8.6808-7.0279 15.722-15.708 15.727-8.6802 0.00555-15.722-7.0273-15.727-15.708v-0.01904c-0.00504-8.6808 7.0279-15.722 15.708-15.727 8.6814-0.00555 15.722 7.0273 15.727 15.708v0.01843z" fill="#fff" type="arc"/>
<g transform="translate(-289.62 99.065)">
<path d="m473.58-253.33c3.4854 3.4854 5.2284 7.7539 5.2284 12.802 0 5.0494-1.7128 9.272-5.1383 12.668-3.6353 3.5766-7.9318 5.3643-12.889 5.3643-4.8978 0-9.1199-1.7732-12.665-5.3195-3.5458-3.5458-5.3184-7.783-5.3184-12.713 0-4.9286 1.7726-9.196 5.3184-12.802 3.4552-3.4865 7.6773-5.2295 12.665-5.2295 5.0483-1e-5 9.314 1.743 12.799 5.2295zm-23.118 2.3448c-2.9467 2.9764-4.4195 6.4629-4.4195 10.462 0 3.9984 1.4583 7.4553 4.3742 10.371 2.9165 2.9165 6.3885 4.3742 10.417 4.3742s7.5302-1.4722 10.507-4.4184c2.8259-2.7364 4.2394-6.1771 4.2394-10.326 0-4.118-1.4365-7.6135-4.3077-10.485-2.8707-2.8707-6.3499-4.3066-10.438-4.3066-4.0884 1e-5 -7.5464 1.4432-10.372 4.3289zm7.7545 8.7032c-0.45029-0.98169-1.1243-1.4728-2.0232-1.4728-1.5892 0-2.3834 1.0701-2.3834 3.2091 0 2.1395 0.79428 3.2085 2.3834 3.2085 1.0494 0 1.7989-0.52075 2.2487-1.5645l2.2028 1.173c-1.0499 1.8655-2.6251 2.7985-4.7255 2.7985-1.6199 0-2.9176-0.4967-3.8921-1.489-0.9761-0.99341-1.4627-2.3627-1.4627-4.1085 0-1.715 0.50229-3.0765 1.5075-4.085 1.0052-1.0085 2.257-1.5126 3.7578-1.5126 2.2201 0 3.8098 0.87488 4.7708 2.6229l-2.384 1.2206zm10.363 0c-0.45087-0.98169-1.1114-1.4728-1.9824-1.4728-1.621 0-2.4321 1.0701-2.4321 3.2091 0 2.1395 0.8111 3.2085 2.4321 3.2085 1.0511 0 1.7872-0.52075 2.2073-1.5645l2.252 1.173c-1.0483 1.8655-2.6212 2.7985-4.7177 2.7985-1.6177 0-2.9126-0.4967-3.8865-1.489-0.97217-0.99341-1.4594-2.3627-1.4594-4.1085 0-1.715 0.49445-3.0765 1.4828-4.085 0.98785-1.0085 2.2453-1.5126 3.7735-1.5126 2.2162 0 3.8036 0.87488 4.7613 2.6229l-2.431 1.2206z"/>
</g>
</g>
<circle cx="255.55" cy="15.313" r="10.807" fill="#fff"/>
<path d="m258.68 12.187c0-0.4165-0.33789-0.75391-0.75293-0.75391h-4.7734c-0.41504 0-0.75293 0.3374-0.75293 0.75391v4.773h1.331v5.6519h3.6172v-5.6519h1.331v-4.773h1e-5z"/>
<circle cx="255.54" cy="9.1724" r="1.6328"/>
<path d="m255.52 3.4072c-3.2324 0-5.9688 1.1279-8.208 3.3838-2.2978 2.3335-3.4463 5.0957-3.4463 8.2847s1.1484 5.9316 3.4463 8.2266c2.2978 2.2944 5.0342 3.4419 8.208 3.4419 3.2129 0 5.998-1.1562 8.3535-3.4712 2.2197-2.1973 3.3301-4.9297 3.3301-8.1973s-1.1299-6.0288-3.3877-8.2847c-2.2598-2.2558-5.0244-3.3838-8.2959-3.3838zm0.02929 2.0996c2.6484 0 4.8975 0.93408 6.7471 2.8013 1.8691 1.8472 2.8037 4.103 2.8037 6.7676 0 2.6836-0.91504 4.9106-2.7451 6.6802-1.9287 1.9062-4.1963 2.8589-6.8057 2.8589-2.6104 0-4.8594-0.94287-6.7471-2.8296-1.8896-1.8867-2.833-4.123-2.833-6.7095 0-2.5869 0.9541-4.8423 2.8623-6.7676 1.8301-1.8672 4.0693-2.8013 6.7178-2.8013z" clip-rule="evenodd" fill-rule="evenodd"/>
</g>
</svg>

<svg
  xmlns:dc="http://purl.org/dc/elements/1.1/"
  xmlns:cc="http://web.resource.org/cc/"
  xmlns:rdf="http://www.w3.org/1999/02/22-rdf-syntax-ns#"
  xmlns:svg="http://www.w3.org/2000/svg"
  xmlns="http://www.w3.org/2000/svg"
  xmlns:sodipodi="http://sodipodi.sourceforge.net/DTD/sodipodi-0.dtd"
  xmlns:inkscape="http://www.inkscape.org/namespaces/inkscape"
  width="120"
  height="42"
  id="svg2759"
  sodipodi:version="0.32"
  inkscape:version="0.45+devel"
  version="1.0"
  sodipodi:docname="by.svg"
  inkscape:output_extension="org.inkscape.output.svg.inkscape"
>
  <defs id="defs2761" />
  <sodipodi:namedview
    id="base"
    pagecolor="#ffffff"
    bordercolor="#8b8b8b"
    borderopacity="1"
    gridtolerance="10000"
    guidetolerance="10"
    objecttolerance="10"
    inkscape:pageopacity="0.0"
    inkscape:pageshadow="2"
    inkscape:zoom="1"
    inkscape:cx="179"
    inkscape:cy="89.569904"
    inkscape:document-units="px"
    inkscape:current-layer="layer1"
    width="120px"
    height="42px"
    inkscape:showpageshadow="false"
    inkscape:window-width="1198"
    inkscape:window-height="624"
    inkscape:window-x="396"
    inkscape:window-y="242"
  />
  <metadata id="metadata2764">
    <rdf:RDF>
      <cc:Work rdf:about="">
        <dc:format>image/svg+xml</dc:format>
        <dc:type rdf:resource="http://purl.org/dc/dcmitype/StillImage" />
      </cc:Work>
    </rdf:RDF>
  </metadata>
  <g inkscape:label="Layer 1" inkscape:groupmode="layer" id="layer1">
    <g
      transform="matrix(0.9937728,0,0,0.9936696,-177.69267,6.25128e-7)"
      id="g260"
      inkscape:export-filename="/mnt/hgfs/Bov/Documents/Work/2007/cc/identity/srr buttons/big/by.png"
      inkscape:export-xdpi="300.23013"
      inkscape:export-ydpi="300.23013"
    >
      <path
        id="path3817_1_"
        nodetypes="ccccccc"
        d="M 181.96579,0.51074 L 296.02975,0.71338 C 297.6235,0.71338 299.04733,0.47705 299.04733,3.89404 L 298.90768,41.46093 L 179.08737,41.46093 L 179.08737,3.75439 C 179.08737,2.06934 179.25046,0.51074 181.96579,0.51074 z"
        style="fill: #aab2ab;"
      />

      <path
        d="M 297.29636,0 L 181.06736,0 C 179.82078,0 178.80613,1.01416 178.80613,2.26074 L 178.80613,41.75732 C 178.80613,42.03906 179.03513,42.26757 179.31687,42.26757 L 299.04734,42.26757 C 299.32908,42.26757 299.55808,42.03905 299.55808,41.75732 L 299.55808,2.26074 C 299.55807,1.01416 298.54343,0 297.29636,0 z M 181.06735,1.02148 L 297.29635,1.02148 C 297.98043,1.02148 298.53658,1.57714 298.53658,2.26074 C 298.53658,2.26074 298.53658,18.20898 298.53658,29.71045 L 215.19234,29.71045 C 212.14742,35.21631 206.28121,38.95459 199.54879,38.95459 C 192.81344,38.95459 186.94869,35.21973 183.90524,29.71045 L 179.8276,29.71045 C 179.8276,18.20899 179.8276,2.26074 179.8276,2.26074 C 179.82761,1.57715 180.38376,1.02148 181.06735,1.02148 z"
        id="path263"
      />

      <g enable-background="new    " id="g265">
        <path
          d="M 253.07761,32.95605 C 253.39499,32.95605 253.68503,32.98437 253.94773,33.04003 C 254.20945,33.09569 254.43308,33.18749 254.62058,33.31542 C 254.8071,33.44237 254.95261,33.6123 255.05515,33.82323 C 255.15769,34.03514 255.20945,34.29589 255.20945,34.60741 C 255.20945,34.94335 255.13328,35.22264 254.97996,35.44628 C 254.82762,35.67089 254.60105,35.85351 254.30223,35.99706 C 254.71434,36.11522 255.02196,36.32226 255.22508,36.61815 C 255.4282,36.91404 255.52977,37.27049 255.52977,37.68749 C 255.52977,38.02343 255.46434,38.31444 255.33348,38.56054 C 255.20262,38.80566 255.02586,39.00683 254.80516,39.1621 C 254.58348,39.31835 254.33055,39.43358 254.04735,39.5078 C 253.76317,39.583 253.47215,39.6201 253.17235,39.6201 L 249.936,39.6201 L 249.936,32.95604 L 253.07761,32.95604 L 253.07761,32.95605 z M 252.89011,35.65137 C 253.15183,35.65137 253.36667,35.58887 253.53562,35.46485 C 253.70359,35.34083 253.78757,35.13965 253.78757,34.86036 C 253.78757,34.70509 253.75925,34.57716 253.70359,34.47852 C 253.64695,34.37891 253.57273,34.30176 253.47898,34.24512 C 253.38523,34.18946 253.27781,34.15039 253.15671,34.12891 C 253.03561,34.10743 252.90866,34.09668 252.77878,34.09668 L 251.40476,34.09668 L 251.40476,35.65137 L 252.89011,35.65137 z M 252.97604,38.47949 C 253.11959,38.47949 253.25631,38.46582 253.38717,38.4375 C 253.51803,38.40918 253.63326,38.3623 253.73385,38.29785 C 253.83346,38.23242 253.91256,38.14355 253.97213,38.03125 C 254.0317,37.91992 254.061,37.77637 254.061,37.60254 C 254.061,37.26074 253.96432,37.0166 253.77096,36.87012 C 253.5776,36.72461 253.32174,36.65137 253.00436,36.65137 L 251.40475,36.65137 L 251.40475,38.47949 L 252.97604,38.47949 z"
          id="path267"
          style="fill: #ffffff;"
        />

        <path
          d="M 255.78854,32.95605 L 257.43209,32.95605 L 258.99264,35.58789 L 260.54342,32.95605 L 262.17721,32.95605 L 259.70358,37.0625 L 259.70358,39.62012 L 258.23483,39.62012 L 258.23483,37.02539 L 255.78854,32.95605 z"
          id="path269"
          style="fill: #ffffff;"
        />
      </g>

      <g id="g5908_1_" transform="matrix(0.872921,0,0,0.872921,50.12536,143.2144)">
        <path
          id="path5906_1_"
          cx="296.35416"
          ry="22.939548"
          cy="264.3577"
          type="arc"
          rx="22.939548"
          d="M 186.90065,-141.46002 C 186.90623,-132.77923 179.87279,-125.73852 171.19257,-125.73291 C 162.51235,-125.72736 155.47051,-132.76025 155.46547,-141.44098 C 155.46547,-141.44714 155.46547,-141.45331 155.46547,-141.46002 C 155.46043,-150.14081 162.49333,-157.18152 171.17355,-157.18658 C 179.8549,-157.19213 186.89561,-150.15924 186.90065,-141.47845 C 186.90065,-141.4729 186.90065,-141.46619 186.90065,-141.46002 z"
          style="fill: #ffffff;"
        />

        <g id="g5706_1_" transform="translate(-289.6157,99.0653)">
          <path
            id="path5708_1_"
            d="M 473.57574,-253.32751 C 477.06115,-249.8421 478.80413,-245.5736 478.80413,-240.52532 C 478.80413,-235.47594 477.09136,-231.25329 473.66582,-227.85741 C 470.03051,-224.28081 465.734,-222.49309 460.77635,-222.49309 C 455.87858,-222.49309 451.65648,-224.26628 448.11122,-227.81261 C 444.56541,-231.35845 442.79277,-235.59563 442.79277,-240.52532 C 442.79277,-245.45391 444.56541,-249.7213 448.11122,-253.32751 C 451.56642,-256.81402 455.7885,-258.557 460.77635,-258.557 C 465.82465,-258.55701 470.09039,-256.81403 473.57574,-253.32751 z M 450.45776,-250.98267 C 447.51104,-248.00629 446.03823,-244.51978 446.03823,-240.52033 C 446.03823,-236.52198 447.49651,-233.06507 450.41247,-230.14966 C 453.32897,-227.23316 456.80096,-225.77545 460.82952,-225.77545 C 464.85808,-225.77545 468.35967,-227.24768 471.33605,-230.19385 C 474.16198,-232.9303 475.57549,-236.37091 475.57549,-240.52033 C 475.57549,-244.63837 474.13903,-248.13379 471.26781,-251.00501 C 468.39714,-253.87568 464.9179,-255.31159 460.82952,-255.31159 C 456.74112,-255.31158 453.28314,-253.86841 450.45776,-250.98267 z M 458.21225,-242.27948 C 457.76196,-243.26117 457.08795,-243.75232 456.18903,-243.75232 C 454.59986,-243.75232 453.80558,-242.68225 453.80558,-240.54321 C 453.80558,-238.40368 454.59986,-237.33471 456.18903,-237.33471 C 457.23841,-237.33471 457.98795,-237.85546 458.43769,-238.89922 L 460.64045,-237.72625 C 459.59052,-235.86077 458.01536,-234.92779 455.91496,-234.92779 C 454.29506,-234.92779 452.99733,-235.42449 452.0229,-236.4168 C 451.0468,-237.41021 450.56016,-238.77953 450.56016,-240.52532 C 450.56016,-242.24035 451.06245,-243.60186 452.06764,-244.61034 C 453.07283,-245.61888 454.32466,-246.12291 455.82545,-246.12291 C 458.04557,-246.12291 459.63526,-245.24803 460.59626,-243.50005 L 458.21225,-242.27948 z M 468.57562,-242.27948 C 468.12475,-243.26117 467.46417,-243.75232 466.5932,-243.75232 C 464.97217,-243.75232 464.16107,-242.68225 464.16107,-240.54321 C 464.16107,-238.40368 464.97217,-237.33471 466.5932,-237.33471 C 467.64429,-237.33471 468.38037,-237.85546 468.80048,-238.89922 L 471.05249,-237.72625 C 470.00421,-235.86077 468.43127,-234.92779 466.33478,-234.92779 C 464.7171,-234.92779 463.42218,-235.42449 462.44831,-236.4168 C 461.47614,-237.41021 460.98896,-238.77953 460.98896,-240.52532 C 460.98896,-242.24035 461.48341,-243.60186 462.47181,-244.61034 C 463.45966,-245.61888 464.71711,-246.12291 466.24531,-246.12291 C 468.4615,-246.12291 470.04896,-245.24803 471.0066,-243.50005 L 468.57562,-242.27948 z"
          />
        </g>
      </g>

      <g id="g275">
        <circle
          cx="255.55124"
          cy="15.31348"
          r="10.80664"
          id="circle277"
          sodipodi:cx="255.55124"
          sodipodi:cy="15.31348"
          sodipodi:rx="10.80664"
          sodipodi:ry="10.80664"
          style="fill: #ffffff;"
        />

        <g id="g279">
          <path
            d="M 258.67819,12.18701 C 258.67819,11.77051 258.3403,11.4331 257.92526,11.4331 L 253.15182,11.4331 C 252.73678,11.4331 252.39889,11.7705 252.39889,12.18701 L 252.39889,16.95996 L 253.72994,16.95996 L 253.72994,22.61182 L 257.34713,22.61182 L 257.34713,16.95996 L 258.67818,16.95996 L 258.67818,12.18701 L 258.67819,12.18701 z"
            id="path281"
          />

          <circle
            cx="255.53854"
            cy="9.1723604"
            r="1.63281"
            id="circle283"
            sodipodi:cx="255.53854"
            sodipodi:cy="9.1723604"
            sodipodi:rx="1.63281"
            sodipodi:ry="1.63281"
          />
        </g>

        <path
          clip-rule="evenodd"
          d="M 255.5239,3.40723 C 252.29148,3.40723 249.55515,4.53516 247.31589,6.79102 C 245.01804,9.12452 243.8696,11.88672 243.8696,15.07569 C 243.8696,18.26466 245.01804,21.00733 247.31589,23.30225 C 249.61374,25.59668 252.35007,26.74414 255.5239,26.74414 C 258.73679,26.74414 261.52195,25.58789 263.87742,23.27295 C 266.09715,21.07568 267.2075,18.34326 267.2075,15.07568 C 267.2075,11.8081 266.07762,9.04687 263.8198,6.79101 C 261.56003,4.53516 258.79538,3.40723 255.5239,3.40723 z M 255.55319,5.50684 C 258.20163,5.50684 260.45065,6.44092 262.30026,8.30811 C 264.1694,10.15528 265.10397,12.41114 265.10397,15.07569 C 265.10397,17.75928 264.18893,19.98633 262.35885,21.75587 C 260.43014,23.66212 258.16256,24.61476 255.55319,24.61476 C 252.94284,24.61476 250.69381,23.67189 248.80612,21.78517 C 246.91647,19.89845 245.97311,17.66212 245.97311,15.0757 C 245.97311,12.48879 246.92721,10.23341 248.83541,8.30812 C 250.6655,6.44092 252.90475,5.50684 255.55319,5.50684 z"
          id="path285"
          style="fill-rule: evenodd;"
        />
      </g>
    </g>
  </g>
</svg>
